X:91
T:Enchanted Lady
Z: id:dc-reel-83
M:C
L:1/8
K:D Major
B|A2AG FAdB|AGFD EAA2|A2AG FAdB|ABde fdd:|!
e|f2df efdf|afdf edBd|f2df efdA|BdAG FDDe|!
f2df efdf|afdf edBA|ABAB dfbf|afeg fdd2|]!

